vendor/shopware/storefront/Resources/app/storefront/dist/assets/icon/solid/x-large.svg

<svg xmlns="http://www.w3.org/2000/svg" width="16" height="16" viewBox="0 0 16 16">
  <path fill="#758CA3" fill-rule="evenodd" d="M8,6.58578644 L12.2928932,2.29289322 C12.6834175,1.90236893 13.3165825,1.90236893 13.7071068,2.29289322 C14.0976311,2.68341751 14.0976311,3.31658249 13.7071068,3.70710678 L9.41421356,8 L13.7071068,12.2928932 C14.0976311,12.6834175 14.0976311,13.3165825 13.7071068,13.7071068 C13.3165825,14.0976311 12.6834175,14.0976311 12.2928932,13.7071068 L8,9.41421356 L3.70710678,13.7071068 C3.31658249,14.0976311 2.68341751,14.0976311 2.29289322,13.7071068 C1.90236893,13.3165825 1.90236893,12.6834175 2.29289322,12.2928932 L6.58578644,8 L2.29289322,3.70710678 C1.90236893,3.31658249 1.90236893,2.68341751 2.29289322,2.29289322 C2.68341751,1.90236893 3.31658249,1.90236893 3.70710678,2.29289322 L8,6.58578644 Z"/>
</svg>

<svg xmlns="http://www.w3.org/2000/svg" width="16" height="16" viewBox="0 0 16 16"><path fill="#758CA3" fill-rule="evenodd" d="m8 6.5858 4.2929-4.293c.3905-.3904 1.0237-.3904 1.4142 0 .3905.3906.3905 1.0238 0 1.4143L9.4142 8l4.293 4.2929c.3904.3905.3904 1.0237 0 1.4142-.3906.3905-1.0238.3905-1.4143 0L8 9.4142l-4.2929 4.293c-.3905.3904-1.0237.3904-1.4142 0-.3905-.3906-.3905-1.0238 0-1.4143L6.5858 8l-4.293-4.2929c-.3904-.3905-.3904-1.0237 0-1.4142.3906-.3905 1.0238-.3905 1.4143 0L8 6.5858z"/></svg>
